;FLAVOR:Marlin
;TIME:18097
;Filament used: 12.9154m
;Layer height: 0.2
;MINX:72.7
;MINY:65.2
;MINZ:0.2
;MAXX:162.3
;MAXY:169.8
;MAXZ:47.8
;Generated with Cura_SteamEngine main
M140 S80
M105
M190 S80
M104 S240
M105
M109 S240
M82 ;absolute extrusion mode
; Ender 3 Custom Start G-code
G92 E0 ; Reset Extruder
G28 ; Home all axes
G1 Z2.0 F3000 ; Move Z Axis up little to prevent scratching of Heat Bed
G1 X0.1 Y20 Z0.3 F5000.0 ; Move to start position
G1 X0.1 Y200.0 Z0.3 F1500.0 E15 ; Draw the first line
G1 X0.4 Y200.0 Z0.3 F5000.0 ; Move to side a little
G1 X0.4 Y20 Z0.3 F1500.0 E30 ; Draw the second line
G92 E0 ; Reset Extruder
G1 Z2.0 F3000 ; Move Z Axis up little to prevent scratching of Heat Bed
G1 X5 Y20 Z0.3 F5000.0 ; Move over to prevent blob squish
G92 E0
G92 E0
G1 F3300 E-5
;LAYER_COUNT:239
;LAYER:0
M107
;MESH:bottom.stl
G0 F6000 X73.9 Y168.6 Z0.2
;TYPE:WALL-INNER
G1 F3300 E0
G1 F900 X161.1 Y168.6 E2.90028
G1 X161.1 Y66.4 E6.29947
G1 X73.9 Y66.4 E9.19975
G1 X73.9 Y168.6 E12.59894
G0 F6000 X73.5 Y169
G1 F900 X161.5 Y169 E15.52583
G1 X161.5 Y66 E18.95162
G1 X73.5 Y66 E21.87852
G1 X73.5 Y169 E25.30431
G0 F6000 X73.1 Y169.4
G1 F900 X161.9 Y169.4 E28.25781
G1 X161.9 Y65.6 E31.71021
G1 X73.1 Y65.6 E34.66371
G1 X73.1 Y169.4 E38.11611
G0 F6000 X72.7 Y169.8
;TYPE:WALL-OUTER
G1 F900 X162.3 Y169.8 E41.09622
G1 X162.3 Y65.2 E44.57523
G1 X72.7 Y65.2 E47.55534
G1 X72.7 Y169.8 E51.03435
G0 F6000 X72.97 Y169.53
G0 X74 Y168.24
G0 X74.26 Y168.24
;TYPE:SKIN
G1 F900 X160.74 Y168.24 E53.91069
G1 X160.74 Y66.76 E57.28593
G1 X74.26 Y66.76 E60.16226
G1 X74.26 Y168.24 E63.5375
G0 F6000 X74.701 Y168.039
G1 F900 X74.459 Y167.797 E63.54888
G0 F6000 X74.459 Y167.232
G1 F900 X75.267 Y168.039 E63.58687
G0 F6000 X75.832 Y168.039
G1 F900 X74.459 Y166.666 E63.65145
G0 F6000 X74.459 Y166.1
G1 F900 X76.398 Y168.039 E63.74265
G0 F6000 X76.964 Y168.039
G1 F900 X74.459 Y165.535 E63.86046
G0 F6000 X74.459 Y164.969
G1 F900 X77.53 Y168.039 E64.00488
G0 F6000 X78.095 Y168.039
G1 F900 X74.459 Y164.403 E64.17591
G0 F6000 X74.459 Y163.838
G1 F900 X78.661 Y168.039 E64.37354
G0 F6000 X79.227 Y168.039
G1 F900 X74.459 Y163.272 E64.59778
G0 F6000 X74.459 Y162.706
G1 F900 X79.792 Y168.039 E64.84863
G0 F6000 X80.358 Y168.039
G1 F900 X74.459 Y162.14 E65.1261
G0 F6000 X74.459 Y161.575
G1 F900 X80.924 Y168.039 E65.43017
G0 F6000 X81.489 Y168.039
G1 F900 X74.459 Y161.009 E65.76084
G0 F6000 X74.459 Y160.443
G1 F900 X82.055 Y168.039 E66.11814
G0 F6000 X82.621 Y168.039
G1 F900 X74.459 Y159.878 E66.50203
G0 F6000 X74.459 Y159.312
G1 F900 X83.186 Y168.039 E66.91252
G0 F6000 X83.752 Y168.039
G1 F900 X74.459 Y158.746 E67.34963
G0 F6000 X74.459 Y158.181
G1 F900 X84.318 Y168.039 E67.81335
G0 F6000 X84.883 Y168.039
G1 F900 X74.459 Y157.615 E68.30366
G0 F6000 X74.459 Y157.049
G1 F900 X85.449 Y168.039 E68.8206
G0 F6000 X86.015 Y168.039
G1 F900 X74.459 Y156.484 E69.36413
G0 F6000 X74.459 Y155.918
G1 F900 X86.58 Y168.039 E69.93427
G0 F6000 X87.146 Y168.039
G1 F900 X74.459 Y155.352 E70.53102
G0 F6000 X74.459 Y154.787
G1 F900 X87.712 Y168.039 E71.15438
G0 F6000 X88.278 Y168.039
G1 F900 X74.459 Y154.221 E71.80436
G0 F6000 X74.459 Y153.655
G1 F900 X88.843 Y168.039 E72.48094
G0 F6000 X89.409 Y168.039
G1 F900 X74.459 Y153.09 E73.18412
G0 F6000 X74.459 Y152.524
G1 F900 X89.975 Y168.039 E73.91392
G0 F6000 X90.54 Y168.039
G1 F900 X74.459 Y151.958 E74.67032
G0 F6000 X74.459 Y151.392
G1 F900 X91.106 Y168.039 E75.45334
G0 F6000 X91.672 Y168.039
G1 F900 X74.459 Y150.827 E76.26297
G0 F6000 X74.459 Y150.261
G1 F900 X92.237 Y168.039 E77.09919
G0 F6000 X92.803 Y168.039
G1 F900 X74.459 Y149.695 E77.96204
G0 F6000 X74.459 Y149.13
G1 F900 X93.369 Y168.039 E78.85148
G0 F6000 X93.934 Y168.039
G1 F900 X74.459 Y148.564 E79.76752
G0 F6000 X74.459 Y147.998
G1 F900 X94.5 Y168.039 E80.71019
G0 F6000 X95.066 Y168.039
G1 F900 X74.459 Y147.433 E81.67946
G0 F6000 X74.459 Y146.867
G1 F900 X95.631 Y168.039 E82.67532
G0 F6000 X96.197 Y168.039
G1 F900 X74.459 Y146.301 E83.69781
G0 F6000 X74.459 Y145.736
G1 F900 X96.763 Y168.039 E84.7469
G0 F6000 X97.329 Y168.039
G1 F900 X74.459 Y145.17 E85.82261
G0 F6000 X74.459 Y144.604
G1 F900 X97.894 Y168.039 E86.92492
G0 F6000 X98.46 Y168.039
G1 F900 X74.459 Y144.039 E88.05383
G0 F6000 X74.459 Y143.473
G1 F900 X99.026 Y168.039 E89.20937
G0 F6000 X99.591 Y168.039
G1 F900 X74.459 Y142.907 E90.3915
G0 F6000 X74.459 Y142.342
G1 F900 X100.157 Y168.039 E91.60023
G0 F6000 X100.723 Y168.039
G1 F900 X74.459 Y141.776 E92.83558
G0 F6000 X74.459 Y141.21
G1 F900 X101.288 Y168.039 E94.09754
G0 F6000 X101.854 Y168.039
G1 F900 X74.459 Y140.644 E95.38612
G0 F6000 X74.459 Y140.079
G1 F900 X102.42 Y168.039 E96.70129
G0 F6000 X102.985 Y168.039
G1 F900 X74.459 Y139.513 E98.04307
G0 F6000 X74.459 Y138.947
G1 F900 X103.551 Y168.039 E99.41147
G0 F6000 X104.117 Y168.039
G1 F900 X74.459 Y138.382 E100.80646
G0 F6000 X74.459 Y137.816
G1 F900 X104.682 Y168.039 E102.22806
G0 F6000 X105.248 Y168.039
G1 F900 X74.459 Y137.25 E103.67628
G0 F6000 X74.459 Y136.685
G1 F900 X105.814 Y168.039 E105.1511
G0 F6000 X106.379 Y168.039
G1 F900 X74.459 Y136.119 E106.65252
G0 F6000 X74.459 Y135.553
G1 F900 X106.945 Y168.039 E108.18056
G0 F6000 X107.511 Y168.039
G1 F900 X74.459 Y134.988 E109.7352
G0 F6000 X74.459 Y134.422
G1 F900 X108.077 Y168.039 E111.31647
G0 F6000 X108.642 Y168.039
G1 F900 X74.459 Y133.856 E112.92433
G0 F6000 X74.459 Y133.291
G1 F900 X109.208 Y168.039 E114.55879
G0 F6000 X109.774 Y168.039
G1 F900 X74.459 Y132.725 E116.21988
G0 F6000 X74.459 Y132.159
G1 F900 X110.339 Y168.039 E117.90756
G0 F6000 X110.905 Y168.039
G1 F900 X74.459 Y131.593 E119.62187
G0 F6000 X74.459 Y131.028
G1 F900 X111.471 Y168.039 E121.36278
G0 F6000 X112.036 Y168.039
G1 F900 X74.459 Y130.462 E123.13029
G0 F6000 X74.459 Y129.896
G1 F900 X112.602 Y168.039 E124.92442
G0 F6000 X113.168 Y168.039
G1 F900 X74.459 Y129.331 E126.74515
G0 F6000 X74.459 Y128.765
G1 F900 X113.733 Y168.039 E128.59247
G0 F6000 X114.299 Y168.039
G1 F900 X74.459 Y128.199 E130.46643
G0 F6000 X74.459 Y127.634
G1 F900 X114.865 Y168.039 E132.36698
G0 F6000 X115.43 Y168.039
G1 F900 X74.459 Y127.068 E134.29413
G0 F6000 X74.459 Y126.502
G1 F900 X115.996 Y168.039 E136.2479
G0 F6000 X116.562 Y168.039
G1 F900 X74.459 Y125.937 E138.22827
G0 F6000 X74.459 Y125.371
G1 F900 X117.127 Y168.039 E140.23524
G0 F6000 X117.693 Y168.039
G1 F900 X74.459 Y124.805 E142.26884
G0 F6000 X74.459 Y124.24
G1 F900 X118.259 Y168.039 E144.32903
G0 F6000 X118.825 Y168.039
G1 F900 X74.459 Y123.674 E146.41585
G0 F6000 X74.459 Y123.108
G1 F900 X119.39 Y168.039 E148.52927
G0 F6000 X119.956 Y168.039
G1 F900 X74.459 Y122.543 E150.66928
G0 F6000 X74.459 Y121.977
G1 F900 X120.522 Y168.039 E152.83592
G0 F6000 X121.087 Y168.039
G1 F900 X74.459 Y121.411 E155.02916
G0 F6000 X74.459 Y120.845
G1 F900 X121.653 Y168.039 E157.24902
G0 F6000 X122.219 Y168.039
G1 F900 X74.459 Y120.28 E159.49548
G0 F6000 X74.459 Y119.714
G1 F900 X122.784 Y168.039 E161.76854
G0 F6000 X123.35 Y168.039
G1 F900 X74.459 Y119.148 E164.06822
G0 F6000 X74.459 Y118.583
G1 F900 X123.916 Y168.039 E166.39451
G0 F6000 X124.481 Y168.039
G1 F900 X74.459 Y118.017 E168.74739
G0 F6000 X74.459 Y117.451
G1 F900 X125.047 Y168.039 E171.12689
G0 F6000 X125.613 Y168.039
G1 F900 X74.459 Y116.886 E173.533
G0 F6000 X74.459 Y116.32
G1 F900 X126.178 Y168.039 E175.9657
G0 F6000 X126.744 Y168.039
G1 F900 X74.459 Y115.754 E178.42502
G0 F6000 X74.459 Y115.189
G1 F900 X127.31 Y168.039 E180.91095
G0 F6000 X127.876 Y168.039
G1 F900 X74.459 Y114.623 E183.4235
G0 F6000 X74.459 Y114.057
G1 F900 X128.441 Y168.039 E185.96265
G0 F6000 X129.007 Y168.039
G1 F900 X74.459 Y113.492 E188.52839
G0 F6000 X74.459 Y112.926
G1 F900 X129.573 Y168.039 E191.12076
G0 F6000 X130.138 Y168.039
G1 F900 X74.459 Y112.36 E193.73973
G0 F6000 X74.459 Y111.794
G1 F900 X130.704 Y168.039 E196.38533
G0 F6000 X131.27 Y168.039
G1 F900 X74.459 Y111.229 E199.05752
G0 F6000 X74.459 Y110.663
G1 F900 X131.835 Y168.039 E201.75631
G0 F6000 X132.401 Y168.039
G1 F900 X74.459 Y110.097 E204.48172
G0 F6000 X74.459 Y109.532
G1 F900 X132.967 Y168.039 E207.23374
G0 F6000 X133.532 Y168.039
G1 F900 X74.459 Y108.966 E210.01235
G0 F6000 X74.459 Y108.4
G1 F900 X134.098 Y168.039 E212.81758
G0 F6000 X134.664 Y168.039
G1 F900 X74.459 Y107.835 E215.64942
G0 F6000 X74.459 Y107.269
G1 F900 X135.229 Y168.039 E218.50785
G0 F6000 X135.795 Y168.039
G1 F900 X74.459 Y106.703 E221.39291
G0 F6000 X74.459 Y106.138
G1 F900 X136.361 Y168.039 E224.30457
G0 F6000 X136.926 Y168.039
G1 F900 X74.459 Y105.572 E227.24282
G0 F6000 X74.459 Y105.006
G1 F900 X137.492 Y168.039 E230.2077
G0 F6000 X138.058 Y168.039
G1 F900 X74.459 Y104.441 E233.19918
G0 F6000 X74.459 Y103.875
G1 F900 X138.624 Y168.039 E236.21728
G0 F6000 X139.189 Y168.039
G1 F900 X74.459 Y103.309 E239.26198
G0 F6000 X74.459 Y102.744
G1 F900 X139.755 Y168.039 E242.33328
G0 F6000 X140.321 Y168.039
G1 F900 X74.459 Y102.178 E245.43121
G0 F6000 X74.459 Y101.612
G1 F900 X140.886 Y168.039 E248.55573
G0 F6000 X141.452 Y168.039
G1 F900 X74.459 Y101.046 E251.70687
G0 F6000 X74.459 Y100.481
G1 F900 X142.018 Y168.039 E254.88462
G0 F6000 X142.583 Y168.039
G1 F900 X74.459 Y99.915 E258.08896
G0 F6000 X74.459 Y99.349
G1 F900 X143.149 Y168.039 E261.31993
G0 F6000 X143.715 Y168.039
G1 F900 X74.459 Y98.784 E264.5775
G0 F6000 X74.459 Y98.218
G1 F900 X144.28 Y168.039 E267.86166
G0 F6000 X144.846 Y168.039
G1 F900 X74.459 Y97.652 E271.17245
G0 F6000 X74.459 Y97.087
G1 F900 X145.412 Y168.039 E274.50984
G0 F6000 X145.977 Y168.039
G1 F900 X74.459 Y96.521 E277.87383
G0 F6000 X74.459 Y95.955
G1 F900 X146.543 Y168.039 E281.26444
G0 F6000 X147.109 Y168.039
G1 F900 X74.459 Y95.39 E284.68165
G0 F6000 X74.459 Y94.824
G1 F900 X147.675 Y168.039 E288.12548
G0 F6000 X148.24 Y168.039
G1 F900 X74.459 Y94.258 E291.59591
G0 F6000 X74.459 Y93.693
G1 F900 X148.806 Y168.039 E295.09294
G0 F6000 X149.372 Y168.039
G1 F900 X74.459 Y93.127 E298.6166
G0 F6000 X74.459 Y92.561
G1 F900 X149.937 Y168.039 E302.16685
G0 F6000 X150.503 Y168.039
G1 F900 X74.459 Y91.996 E305.7437
G0 F6000 X74.459 Y91.43
G1 F900 X151.069 Y168.039 E309.34718
G0 F6000 X151.634 Y168.039
G1 F900 X74.459 Y90.864 E312.97726
G0 F6000 X74.459 Y90.298
G1 F900 X152.2 Y168.039 E316.63395
G0 F6000 X152.766 Y168.039
G1 F900 X74.459 Y89.733 E320.31725
G0 F6000 X74.459 Y89.167
G1 F900 X153.331 Y168.039 E324.02715
G0 F6000 X153.897 Y168.039
G1 F900 X74.459 Y88.601 E327.76367
G0 F6000 X74.459 Y88.036
G1 F900 X154.463 Y168.039 E331.52679
G0 F6000 X155.028 Y168.039
G1 F900 X74.459 Y87.47 E335.31651
G0 F6000 X74.459 Y86.904
G1 F900 X155.594 Y168.039 E339.13285
G0 F6000 X156.16 Y168.039
G1 F900 X74.459 Y86.339 E342.97579
G0 F6000 X74.459 Y85.773
G1 F900 X156.725 Y168.039 E346.84533
G0 F6000 X157.291 Y168.039
G1 F900 X74.459 Y85.207 E350.74149
G0 F6000 X74.459 Y84.642
G1 F900 X157.857 Y168.039 E354.66426
G0 F6000 X158.423 Y168.039
G1 F900 X74.459 Y84.076 E358.61364
G0 F6000 X74.459 Y83.51
G1 F900 X158.988 Y168.039 E362.58963
G0 F6000 X159.554 Y168.039
G1 F900 X74.459 Y82.945 E366.59221
G0 F6000 X74.459 Y82.379
G1 F900 X160.12 Y168.039 E370.62142
G0 F6000 X160.54 Y167.894
G1 F900 X74.459 Y81.813 E374.6704
G0 F6000 X74.459 Y81.247
G1 F900 X160.54 Y167.328 E378.71939
G0 F6000 X160.54 Y166.762
G1 F900 X74.459 Y80.682 E382.76835
G0 F6000 X74.459 Y80.116
G1 F900 X160.54 Y166.196 E386.81732
G0 F6000 X160.54 Y165.631
G1 F900 X74.459 Y79.55 E390.8663
G0 F6000 X74.459 Y78.985
G1 F900 X160.54 Y165.065 E394.91527
G0 F6000 X160.54 Y164.499
G1 F900 X74.459 Y78.419 E398.96423
G0 F6000 X74.459 Y77.853
G1 F900 X160.54 Y163.934 E403.01321
G0 F6000 X160.54 Y163.368
G1 F900 X74.459 Y77.288 E407.06218
G0 F6000 X74.459 Y76.722
G1 F900 X160.54 Y162.802 E411.11114
G0 F6000 X160.54 Y162.237
G1 F900 X74.459 Y76.156 E415.16013
G0 F6000 X74.459 Y75.591
G1 F900 X160.54 Y161.671 E419.20909
G0 F6000 X160.54 Y161.105
G1 F900 X74.459 Y75.025 E423.25805
G0 F6000 X74.459 Y74.459
G1 F900 X160.54 Y160.54 E427.30704
G0 F6000 X160.54 Y159.974
G1 F900 X74.459 Y73.894 E431.356
G0 F6000 X74.459 Y73.328
G1 F900 X160.54 Y159.408 E435.40496
G0 F6000 X160.54 Y158.843
G1 F900 X74.459 Y72.762 E439.45395
G0 F6000 X74.459 Y72.197
G1 F900 X160.54 Y158.277 E443.50291
G0 F6000 X160.54 Y157.711
G1 F900 X74.459 Y71.631 E447.55188
G0 F6000 X74.459 Y71.065
G1 F900 X160.54 Y157.145 E451.60084
G0 F6000 X160.54 Y156.58
G1 F900 X74.459 Y70.499 E455.64982
G0 F6000 X74.459 Y69.934
G1 F900 X160.54 Y156.014 E459.69879
G0 F6000 X160.54 Y155.448
G1 F900 X74.459 Y69.368 E463.74775
G0 F6000 X74.459 Y68.802
G1 F900 X160.54 Y154.883 E467.79674
G0 F6000 X160.54 Y154.317
G1 F900 X74.459 Y68.237 E471.8457
G0 F6000 X74.459 Y67.671
G1 F900 X160.54 Y153.751 E475.89466
G0 F6000 X160.54 Y153.186
G1 F900 X74.459 Y67.105 E479.94365
G0 F6000 X74.879 Y66.96
G1 F900 X160.54 Y152.62 E483.97286
G0 F6000 X160.54 Y152.054
G1 F900 X75.445 Y66.96 E487.97544
G0 F6000 X76.011 Y66.96
G1 F900 X160.54 Y151.489 E491.95143
G0 F6000 X160.54 Y150.923
G1 F900 X76.576 Y66.96 E495.90081
G0 F6000 X77.142 Y66.96
G1 F900 X160.54 Y150.357 E499.82357
G0 F6000 X160.54 Y149.792
G1 F900 X77.708 Y66.96 E503.71974
G0 F6000 X78.273 Y66.96
G1 F900 X160.54 Y149.226 E507.5893
G0 F6000 X160.54 Y148.66
G1 F900 X78.839 Y66.96 E511.43224
G0 F6000 X79.405 Y66.96
G1 F900 X160.54 Y148.095 E515.24858
G0 F6000 X160.54 Y147.529
G1 F900 X79.97 Y66.96 E519.03833
G0 F6000 X80.536 Y66.96
G1 F900 X160.54 Y146.963 E522.80145
G0 F6000 X160.54 Y146.397
G1 F900 X81.102 Y66.96 E526.53794
G0 F6000 X81.668 Y66.96
G1 F900 X160.54 Y145.832 E530.24784
G0 F6000 X160.54 Y145.266
G1 F900 X82.233 Y66.96 E533.93114
G0 F6000 X82.799 Y66.96
G1 F900 X160.54 Y144.7 E537.58781
G0 F6000 X160.54 Y144.135
G1 F900 X83.365 Y66.96 E541.21789
G0 F6000 X83.93 Y66.96
G1 F900 X160.54 Y143.569 E544.82136
G0 F6000 X160.54 Y143.003
G1 F900 X84.496 Y66.96 E548.39822
G0 F6000 X85.062 Y66.96
G1 F900 X160.54 Y142.438 E551.94847
G0 F6000 X160.54 Y141.872
G1 F900 X85.627 Y66.96 E555.47212
G0 F6000 X86.193 Y66.96
G1 F900 X160.54 Y141.306 E558.96916
G0 F6000 X160.54 Y140.741
G1 F900 X86.759 Y66.96 E562.43959
G0 F6000 X87.324 Y66.96
G1 F900 X160.54 Y140.175 E565.88342
G0 F6000 X160.54 Y139.609
G1 F900 X87.89 Y66.96 E569.30063
G0 F6000 X88.456 Y66.96
G1 F900 X160.54 Y139.044 E572.69124
G0 F6000 X160.54 Y138.478
G1 F900 X89.021 Y66.96 E576.05525
G0 F6000 X89.587 Y66.96
G1 F900 X160.54 Y137.912 E579.39264
G0 F6000 X160.54 Y137.347
G1 F900 X90.153 Y66.96 E582.70343
G0 F6000 X90.718 Y66.96
G1 F900 X160.54 Y136.781 E585.98762
G0 F6000 X160.54 Y136.215
G1 F900 X91.284 Y66.96 E589.24518
G0 F6000 X91.85 Y66.96
G1 F900 X160.54 Y135.649 E592.47613
G0 F6000 X160.54 Y135.084
G1 F900 X92.416 Y66.96 E595.68047
G0 F6000 X92.981 Y66.96
G1 F900 X160.54 Y134.518 E598.85822
G0 F6000 X160.54 Y133.952
G1 F900 X93.547 Y66.96 E602.00934
G0 F6000 X94.113 Y66.96
G1 F900 X160.54 Y133.387 E605.13386
G0 F6000 X160.54 Y132.821
G1 F900 X94.678 Y66.96 E608.23178
G0 F6000 X95.244 Y66.96
G1 F900 X160.54 Y132.255 E611.30308
G0 F6000 X160.54 Y131.69
G1 F900 X95.81 Y66.96 E614.34778
G0 F6000 X96.375 Y66.96
G1 F900 X160.54 Y131.124 E617.36589
G0 F6000 X160.54 Y130.558
G1 F900 X96.941 Y66.96 E620.35736
G0 F6000 X97.507 Y66.96
G1 F900 X160.54 Y129.993 E623.32224
G0 F6000 X160.54 Y129.427
G1 F900 X98.072 Y66.96 E626.26052
G0 F6000 X98.638 Y66.96
G1 F900 X160.54 Y128.861 E629.17218
G0 F6000 X160.54 Y128.296
G1 F900 X99.204 Y66.96 E632.05724
G0 F6000 X99.769 Y66.96
G1 F900 X160.54 Y127.73 E634.91569
G0 F6000 X160.54 Y127.164
G1 F900 X100.335 Y66.96 E637.74753
G0 F6000 X100.901 Y66.96
G1 F900 X160.54 Y126.598 E640.55274
G0 F6000 X160.54 Y126.033
G1 F900 X101.466 Y66.96 E643.33138
G0 F6000 X102.032 Y66.96
G1 F900 X160.54 Y125.467 E646.08339
G0 F6000 X160.54 Y124.901
G1 F900 X102.598 Y66.96 E648.80878
G0 F6000 X103.164 Y66.96
G1 F900 X160.54 Y124.336 E651.50757
G0 F6000 X160.54 Y123.77
G1 F900 X103.729 Y66.96 E654.17976
G0 F6000 X104.295 Y66.96
G1 F900 X160.54 Y123.204 E656.82533
G0 F6000 X160.54 Y122.639
G1 F900 X104.861 Y66.96 E659.4443
G0 F6000 X105.426 Y66.96
G1 F900 X160.54 Y122.073 E662.03667
G0 F6000 X160.54 Y121.507
G1 F900 X105.992 Y66.96 E664.60242
G0 F6000 X106.558 Y66.96
