;FLAVOR:Marlin
;TIME:25462
;Filament used: 19.3045m
;Layer height: 0.2
;MINX:70.5
;MINY:64.1
;MINZ:0.2
;MAXX:164.5
;MAXY:170.9
;MAXZ:50
;Generated with Cura_SteamEngine main
M140 S80
M105
M190 S80
M104 S240
M105
M109 S240
M82 ;absolute extrusion mode
; Ender 3 Custom Start G-code
G92 E0 ; Reset Extruder
G28 ; Home all axes
G1 Z2.0 F3000 ; Move Z Axis up little to prevent scratching of Heat Bed
G1 X0.1 Y20 Z0.3 F5000.0 ; Move to start position
G1 X0.1 Y200.0 Z0.3 F1500.0 E15 ; Draw the first line
G1 X0.4 Y200.0 Z0.3 F5000.0 ; Move to side a little
G1 X0.4 Y20 Z0.3 F1500.0 E30 ; Draw the second line
G92 E0 ; Reset Extruder
G1 Z2.0 F3000 ; Move Z Axis up little to prevent scratching of Heat Bed
G1 X5 Y20 Z0.3 F5000.0 ; Move over to prevent blob squish
G92 E0
G92 E0
G1 F3300 E-5
;LAYER_COUNT:250
;LAYER:0
M107
;MESH:protocase-designer v1.stl
G0 F6000 X105.035 Y93.293 Z0.2
;TYPE:WALL-INNER
G1 F3300 E0
G1 F900 X103.578 Y93.241 E0.04849
G1 X102.172 Y92.969 E0.09612
G1 X100.816 Y92.483 E0.14403
G1 X99.545 Y91.792 E0.19215
G1 X98.384 Y90.897 E0.24091
G1 X97.385 Y89.855 E0.28892
G1 X96.587 Y88.718 E0.33512
G1 X95.944 Y87.427 E0.38309
G1 X95.502 Y86.042 E0.43144
G1 X95.288 Y84.621 E0.47924
G1 X95.284 Y83.289 E0.52354
G1 X95.3 Y83.076 E0.53065
G1 X95.506 Y81.758 E0.57501
G1 X95.94 Y80.389 E0.62278
G1 X96.576 Y79.095 E0.67074
G1 X97.406 Y77.919 E0.71861
G1 X98.409 Y76.875 E0.76676
G1 X99.543 Y76.009 E0.81422
G1 X100.812 Y75.318 E0.86228
G1 X102.163 Y74.832 E0.91003
G1 X103.58 Y74.558 E0.95804
G1 X105.026 Y74.504 E1.00616
G1 X106.445 Y74.666 E1.05367
G1 X107.84 Y75.05 E1.10179
G1 X109.154 Y75.638 E1.14967
G1 X110.362 Y76.419 E1.19751
G1 X111.436 Y77.376 E1.24536
G1 X112.354 Y78.49 E1.29337
G1 X113.089 Y79.725 E1.34117
G1 X113.628 Y81.058 E1.38899
G1 X113.956 Y82.467 E1.43711
G1 X114.065 Y83.905 E1.48508
G1 X113.954 Y85.341 E1.53298
G1 X113.629 Y86.739 E1.58072
G1 X113.089 Y88.075 E1.62865
G1 X112.352 Y89.312 E1.67654
G1 X111.437 Y90.418 E1.72428
G1 X110.363 Y91.376 E1.77215
G1 X109.162 Y92.158 E1.81981
G1 X107.822 Y92.753 E1.86858
G1 X106.459 Y93.131 E1.91562
G1 X105.035 Y93.293 E1.96329
G0 F6000 X104.996 Y92.897
G1 F900 X103.618 Y92.84 E2.00916
G1 X102.278 Y92.583 E2.05454
G1 X100.976 Y92.113 E2.10058
G1 X99.772 Y91.461 E2.14612
G1 X98.694 Y90.638 E2.19123
G1 X97.707 Y89.622 E2.23835
G1 X96.913 Y88.479 E2.28463
G1 X96.322 Y87.288 E2.32886
G1 X95.893 Y85.953 E2.37549
G1 X95.686 Y84.591 E2.42131
G1 X95.684 Y83.289 E2.46462
G1 X95.686 Y83.212 E2.46718
G1 X95.896 Y81.85 E2.51302
G1 X96.311 Y80.538 E2.55879
G1 X96.925 Y79.3 E2.60475
G1 X97.715 Y78.173 E2.65052
G1 X98.673 Y77.177 E2.69649
G1 X99.765 Y76.344 E2.74217
G1 X100.969 Y75.688 E2.78777
G1 X102.278 Y75.216 E2.83405
G1 X103.63 Y74.956 E2.87984
G1 X105.012 Y74.904 E2.92584
G1 X106.377 Y75.061 E2.97154
G1 X107.7 Y75.425 E3.01718
G1 X108.964 Y75.991 E3.06324
G1 X110.118 Y76.738 E3.10897
G1 X111.146 Y77.658 E3.15485
G1 X112.023 Y78.717 E3.20058
G1 X112.73 Y79.905 E3.24656
G1 X113.247 Y81.185 E3.29248
G1 X113.56 Y82.53 E3.33841
G1 X113.66 Y83.898 E3.38403
G1 X113.558 Y85.275 E3.42995
G1 X113.248 Y86.613 E3.47563
G1 X112.73 Y87.895 E3.52162
G1 X112.025 Y89.08 E3.56748
G1 X111.148 Y90.141 E3.61327
G1 X110.119 Y91.058 E3.65911
G1 X108.965 Y91.808 E3.70489
G1 X107.704 Y92.373 E3.75085
G1 X106.381 Y92.738 E3.79649
G1 X104.996 Y92.897 E3.84286
G0 F6000 X104.995 Y92.494
G1 F900 X103.669 Y92.443 E3.887
G1 X102.36 Y92.188 E3.93135
G1 X101.161 Y91.756 E3.97374
G1 X100.004 Y91.13 E4.01749
G1 X98.952 Y90.332 E4.06141
G1 X98.035 Y89.386 E4.10523
G1 X97.262 Y88.283 E4.15003
G1 X96.689 Y87.129 E4.19288
G1 X96.285 Y85.859 E4.23721
G1 X96.085 Y84.56 E4.28092
G1 X96.084 Y83.289 E4.3232
G1 X96.09 Y83.197 E4.32626
G1 X96.285 Y81.941 E4.36854
G1 X96.683 Y80.687 E4.4123
G1 X97.269 Y79.504 E4.45621
G1 X98.024 Y78.427 E4.49995
G1 X98.944 Y77.473 E4.54403
G1 X99.978 Y76.683 E4.58731
G1 X101.139 Y76.051 E4.63128
G1 X102.38 Y75.605 E4.67514
G1 X103.641 Y75.361 E4.71786
G1 X104.965 Y75.306 E4.76193
G1 X106.296 Y75.454 E4.80647
G1 X107.568 Y75.804 E4.85035
G1 X108.771 Y76.343 E4.8942
G1 X109.877 Y77.059 E4.93802
G1 X110.857 Y77.932 E4.98167
G1 X111.696 Y78.951 E5.02557
G1 X112.371 Y80.085 E5.06947
G1 X112.864 Y81.304 E5.1132
G1 X113.163 Y82.585 E5.15695
G1 X113.262 Y83.898 E5.20075
G1 X113.163 Y85.215 E5.24467
G1 X112.865 Y86.493 E5.28832
G1 X112.372 Y87.715 E5.33215
G1 X111.695 Y88.852 E5.37616
G1 X110.859 Y89.864 E5.41982
G1 X109.875 Y90.741 E5.46366
G1 X108.79 Y91.445 E5.50668
G1 X107.542 Y92.003 E5.55215
G1 X106.33 Y92.337 E5.59396
G1 X104.995 Y92.494 E5.63867
G0 F6000 X104.982 Y92.094
;TYPE:WALL-OUTER
G1 F900 X103.719 Y92.046 E5.68071
G1 X102.494 Y91.81 E5.7222
G1 X101.317 Y91.388 E5.76379
G1 X100.208 Y90.786 E5.80576
G1 X99.203 Y90.02 E5.84779
G1 X98.33 Y89.115 E5.88961
G1 X97.616 Y88.096 E5.93099
G1 X97.052 Y86.96 E5.97318
G1 X96.672 Y85.757 E6.01514
G1 X96.484 Y84.53 E6.05642
G1 X96.484 Y83.289 E6.0977
G1 X96.675 Y82.032 E6.13999
G1 X97.054 Y80.836 E6.18172
G1 X97.613 Y79.708 E6.22359
G1 X98.333 Y78.681 E6.2653
G1 X99.218 Y77.767 E6.30762
G1 X100.189 Y77.026 E6.34824
G1 X101.317 Y76.412 E6.39096
G1 X102.47 Y75.997 E6.43172
G1 X103.71 Y75.755 E6.47374
G1 X104.965 Y75.706 E6.51551
G1 X106.238 Y75.853 E6.55813
G1 X107.446 Y76.188 E6.59983
G1 X108.565 Y76.689 E6.6406
G1 X109.643 Y77.386 E6.6833
G1 X110.569 Y78.212 E6.72457
G1 X111.358 Y79.168 E6.7658
G1 X112.017 Y80.276 E6.80868
G1 X112.475 Y81.41 E6.84935
G1 X112.767 Y82.661 E6.89208
G1 X112.86 Y83.914 E6.93387
G1 X112.767 Y85.139 E6.97473
G1 X112.476 Y86.387 E7.01735
G1 X112.017 Y87.524 E7.05814
G1 X111.377 Y88.604 E7.09989
G1 X110.571 Y89.586 E7.14214
G1 X109.621 Y90.431 E7.18443
G1 X108.58 Y91.104 E7.22566
G1 X107.424 Y91.621 E7.26778
G1 X106.224 Y91.951 E7.30917
G1 X104.982 Y92.094 E7.35076
G1 F3300 E2.35076
G0 F6000 X105.061 Y92.789
G0 X108.57 Y92.621
G0 X125.849 Y92.687
G0 X128.594 Y93.243
;TYPE:WALL-INNER
G1 F3300 E7.35076
G1 F900 X127.157 Y92.966 E7.39943
G1 X125.804 Y92.477 E7.44728
G1 X124.538 Y91.786 E7.49525
G1 X123.405 Y90.916 E7.54276
G1 X122.426 Y89.909 E7.58948
G1 X121.577 Y88.706 E7.63845
G1 X120.936 Y87.411 E7.68651
G1 X120.502 Y86.041 E7.73431
G1 X120.284 Y84.612 E7.78239
G1 X120.284 Y83.289 E7.82639
G1 X120.3 Y83.076 E7.83349
G1 X120.502 Y81.758 E7.87784
G1 X120.938 Y80.382 E7.92585
G1 X121.579 Y79.092 E7.97376
G1 X122.393 Y77.931 E8.02092
G1 X123.41 Y76.874 E8.06971
G1 X124.543 Y76.009 E8.11712
G1 X125.812 Y75.318 E8.16518
G1 X127.163 Y74.832 E8.21293
G1 X128.58 Y74.558 E8.26093
G1 X130.026 Y74.504 E8.30906
G1 X131.445 Y74.666 E8.35656
G1 X132.84 Y75.05 E8.40469
G1 X134.154 Y75.638 E8.45257
G1 X135.362 Y76.419 E8.50041
G1 X136.438 Y77.378 E8.54835
G1 X137.35 Y78.491 E8.59621
G1 X138.089 Y79.723 E8.64399
G1 X138.629 Y81.062 E8.69201
G1 X138.951 Y82.463 E8.73982
G1 X139.061 Y83.897 E8.78766
G1 X138.957 Y85.32 E8.83512
G1 X138.625 Y86.748 E8.88388
G1 X138.083 Y88.084 E8.93183
G1 X137.362 Y89.296 E8.97874
G1 X136.427 Y90.431 E9.02765
G1 X135.349 Y91.389 E9.07561
G1 X134.144 Y92.167 E9.12332
G1 X132.833 Y92.752 E9.17107
G1 X131.45 Y93.132 E9.21877
G1 X130.022 Y93.296 E9.26658
G1 X128.594 Y93.243 E9.31411
G0 F6000 X128.604 Y92.838
G1 F900 X127.268 Y92.58 E9.35936
G1 X126.001 Y92.123 E9.40416
G1 X124.76 Y91.453 E9.45107
G1 X123.668 Y90.618 E9.49679
G1 X122.714 Y89.625 E9.54259
G1 X121.925 Y88.505 E9.58816
G1 X121.308 Y87.262 E9.63431
G1 X120.893 Y85.951 E9.68005
G1 X120.688 Y84.612 E9.7251
G1 X120.684 Y83.289 E9.7691
G1 X120.695 Y83.137 E9.77417
G1 X120.893 Y81.847 E9.81758
G1 X121.308 Y80.539 E9.86322
G1 X121.925 Y79.295 E9.90941
G1 X122.724 Y78.163 E9.95549
G1 X123.674 Y77.176 E10.00106
G1 X124.765 Y76.344 E10.04669
G1 X125.969 Y75.688 E10.09229
G1 X127.278 Y75.216 E10.13858
G1 X128.63 Y74.956 E10.18437
G1 X130.012 Y74.904 E10.23037
G1 X131.377 Y75.061 E10.27606
G1 X132.7 Y75.425 E10.3217
G1 X133.964 Y75.991 E10.36777
G1 X135.118 Y76.738 E10.41349
G1 X136.146 Y77.658 E10.45937
G1 X137.023 Y78.717 E10.5051
G1 X137.731 Y79.906 E10.55113
G1 X138.243 Y81.182 E10.59686
G1 X138.556 Y82.524 E10.64269
G1 X138.661 Y83.897 E10.68849
G1 X138.553 Y85.296 E10.73516
G1 X138.252 Y86.59 E10.77935
G1 X137.734 Y87.887 E10.8258
G1 X137.031 Y89.07 E10.87157
G1 X136.164 Y90.123 E10.91694
G1 X135.135 Y91.045 E10.96289
G1 X133.945 Y91.816 E11.01005
G1 X132.705 Y92.37 E11.05522
G1 X131.375 Y92.739 E11.10113
G1 X129.998 Y92.897 E11.14723
G1 X128.604 Y92.838 E11.19364
G0 F6000 X128.689 Y92.445
G1 F900 X127.356 Y92.187 E11.23879
G1 X126.155 Y91.754 E11.28126
G1 X125.004 Y91.13 E11.3248
G1 X123.965 Y90.342 E11.36818
G1 X123.023 Y89.372 E11.41315
G1 X122.269 Y88.299 E11.45677
G1 X121.682 Y87.117 E11.50066
G1 X121.282 Y85.854 E11.54472
G1 X121.086 Y84.573 E11.58783
G1 X121.084 Y83.289 E11.63053
G1 X121.09 Y83.197 E11.6336
G1 X121.282 Y81.946 E11.67569
G1 X121.682 Y80.683 E11.71976
G1 X122.269 Y79.5 E11.76368
G1 X123.029 Y78.421 E11.80758
G1 X123.944 Y77.473 E11.8514
G1 X124.978 Y76.683 E11.89468
G1 X126.139 Y76.051 E11.93865
G1 X127.38 Y75.605 E11.98251
G1 X128.641 Y75.361 E12.02523
G1 X129.965 Y75.306 E12.0693
G1 X131.296 Y75.454 E12.11384
G1 X132.568 Y75.804 E12.15772
G1 X133.771 Y76.343 E12.20157
G1 X134.877 Y77.059 E12.24539
G1 X135.857 Y77.932 E12.28904
G1 X136.695 Y78.951 E12.33292
G1 X137.371 Y80.085 E12.37683
G1 X137.864 Y81.304 E12.42056
G1 X138.161 Y82.585 E12.4643
G1 X138.261 Y83.897 E12.50806
G1 X138.159 Y85.227 E12.55243
G1 X137.867 Y86.479 E12.59519
G1 X137.376 Y87.703 E12.63905
G1 X136.705 Y88.834 E12.68279
G1 X135.848 Y89.875 E12.72764
G1 X134.885 Y90.733 E12.77054
G1 X133.745 Y91.469 E12.81567
G1 X132.59 Y91.986 E12.85776
G1 X131.322 Y92.339 E12.90154
G1 X129.999 Y92.494 E12.94584
G1 X128.689 Y92.445 E12.98944
G0 F6000 X128.716 Y92.046
;TYPE:WALL-OUTER
G1 F900 X127.47 Y91.803 E13.03167
G1 X126.301 Y91.381 E13.073
G1 X125.201 Y90.782 E13.11466
G1 X124.206 Y90.022 E13.1563
G1 X123.342 Y89.129 E13.19763
G1 X122.606 Y88.078 E13.24031
G1 X122.06 Y86.978 E13.28115
G1 X121.672 Y85.753 E13.32389
G1 X121.484 Y84.534 E13.36491
G1 X121.484 Y83.289 E13.40632
G1 X121.679 Y82.017 E13.44912
G1 X122.06 Y80.822 E13.49084
G1 X122.606 Y79.721 E13.53172
G1 X123.335 Y78.679 E13.57401
G1 X124.218 Y77.767 E13.61623
G1 X125.189 Y77.026 E13.65686
G1 X126.317 Y76.412 E13.69958
G1 X127.47 Y75.997 E13.74033
G1 X128.71 Y75.755 E13.78235
G1 X129.965 Y75.706 E13.82413
G1 X131.238 Y75.853 E13.86675
G1 X132.446 Y76.188 E13.90844
G1 X133.565 Y76.689 E13.94922
G1 X134.643 Y77.386 E13.99192
G1 X135.569 Y78.212 E14.03319
G1 X136.358 Y79.168 E14.07442
G1 X137.011 Y80.262 E14.11679
G1 X137.48 Y81.424 E14.15847
G1 X137.765 Y82.646 E14.2002
G1 X137.861 Y83.897 E14.24193
G1 X137.765 Y85.158 E14.284
G1 X137.48 Y86.378 E14.32567
G1 X137.013 Y87.534 E14.36713
G1 X136.366 Y88.621 E14.40921
G1 X135.574 Y89.583 E14.45065
G1 X134.635 Y90.421 E14.49251
G1 X133.571 Y91.109 E14.53465
G1 X132.433 Y91.618 E14.57612
G1 X131.223 Y91.951 E14.61786
G1 X129.983 Y92.094 E14.65937
G1 X128.716 Y92.046 E14.70155
G1 F3300 E9.70155
G0 F6000 X128.584 Y92.732
G0 X128.985 Y93.439
G0 X129.017 Y123.375
G0 X127.982 Y124.547
G0 X127.982 Y130.942
G0 X128.031 Y132.574
;TYPE:WALL-INNER
G1 F3300 E14.70155
G1 F900 X127.643 Y132.397 E14.71573
G1 X127.443 Y132.238 E14.72423
G1 X127.237 Y131.99 E14.73495
G1 X127.115 Y131.76 E14.74361
G1 X127.01 Y131.332 E14.75827
G1 X127.01 Y124.975 E14.9697
G1 X127.016 Y124.843 E14.9741
G1 X127.116 Y124.439 E14.98794
G1 X127.237 Y124.209 E14.99658
G1 X127.443 Y123.961 E15.00731
G1 X127.643 Y123.803 E15.01578
G1 X127.976 Y123.643 E15.02807
G1 X128.309 Y123.578 E15.03936
G1 X130.052 Y123.574 E15.09733
G1 X130.335 Y123.64 E15.10699
G1 X130.574 Y123.741 E15.11562
G1 X130.841 Y123.929 E15.12649
G1 X131.103 Y124.24 E15.14001
G1 X131.256 Y124.586 E15.15259
G1 X131.309 Y124.908 E15.16345
G1 X131.309 Y131.291 E15.37575
G1 X131.256 Y131.613 E15.3866
G1 X131.129 Y131.939 E15.39824
G1 X130.885 Y132.231 E15.41089
G1 X130.579 Y132.456 E15.42353
G1 X130.372 Y132.547 E15.43105
G1 X130.029 Y132.621 E15.44272
G1 X128.297 Y132.621 E15.50032
G1 X128.031 Y132.574 E15.50931
G0 F6000 X127.997 Y132.137
G1 F900 X127.719 Y131.949 E15.52047
G1 X127.485 Y131.608 E15.53423
G1 X127.414 Y131.318 E15.54416
G1 X127.41 Y124.975 E15.75513
G1 X127.414 Y124.881 E15.75825
G1 X127.486 Y124.592 E15.76816
G1 X127.719 Y124.251 E15.7819
G1 X127.997 Y124.063 E15.79306
G1 X128.364 Y123.975 E15.80561
G1 X129.999 Y123.978 E15.85999
G1 X130.282 Y124.045 E15.86966
G1 X130.546 Y124.202 E15.87988
G1 X130.714 Y124.378 E15.88797
G1 X130.871 Y124.697 E15.8998
G1 X130.909 Y124.927 E15.90755
G1 X130.909 Y131.272 E16.11859
G1 X130.872 Y131.502 E16.12634
G1 X130.715 Y131.82 E16.13813
G1 X130.518 Y132.02 E16.14747
G1 X130.161 Y132.194 E16.16068
G1 X129.953 Y132.225 E16.16767
G1 X128.314 Y132.221 E16.22219
G1 X127.997 Y132.137 E16.23309
G0 F6000 X128.303 Y131.824
G1 F900 X127.995 Y131.66 E16.2447
G1 X127.855 Y131.455 E16.25296
G1 X127.812 Y131.281 E16.25892
G1 X127.81 Y124.975 E16.46866
G1 X127.855 Y124.745 E16.47645
G1 X127.995 Y124.54 E16.48471
G1 X128.3 Y124.377 E16.49621
G1 X129.977 Y124.374 E16.55199
G1 X130.133 Y124.417 E16.55737
G1 X130.377 Y124.597 E16.56745
G1 X130.505 Y124.89 E16.57809
G1 X130.51 Y131.305 E16.79145
G1 X130.378 Y131.602 E16.80226
G1 X130.218 Y131.741 E16.80931
G1 X129.986 Y131.821 E16.81747
G1 X128.303 Y131.824 E16.87345
G0 F6000 X128.271 Y131.37
;TYPE:WALL-OUTER
G1 F900 X128.21 Y131.244 E16.87811
G1 X128.21 Y124.975 E17.08661
G1 X128.271 Y124.83 E17.09185
G1 X128.391 Y124.775 E17.09624
G1 X129.934 Y124.776 E17.14756
G1 X130.061 Y124.842 E17.15232
G1 X130.11 Y124.932 E17.15573
G1 X130.107 Y131.263 E17.3663
G1 X130.038 Y131.38 E17.37081
G1 X129.944 Y131.423 E17.37425
G1 X128.379 Y131.423 E17.4263
G1 X128.271 Y131.37 E17.4303
G1 F3300 E12.4303
G0 F6000 X128.271 Y132.125
G0 X127.014 Y131.97
G0 X122.486 Y132.759
G0 X119.579 Y133.926
G0 X116.516 Y134.976
;TYPE:WALL-INNER
G1 F3300 E17.4303
G1 F900 X115.267 Y134.743 E17.47256
G1 X114.087 Y134.283 E17.51469
G1 X113.01 Y133.618 E17.55679
G1 X112.07 Y132.765 E17.599
G1 X111.289 Y131.735 E17.642
G1 X110.728 Y130.606 E17.68393
G1 X110.378 Y129.396 E17.72582
G1 X110.265 Y128.232 E17.76472
G1 X110.26 Y128.076 E17.76991
G1 X110.372 Y126.823 E17.81175
G1 X110.72 Y125.608 E17.85379
G1 X111.299 Y124.453 E17.89676
G1 X112.055 Y123.451 E17.93851
G1 X112.991 Y122.596 E17.98067
G1 X114.083 Y121.917 E18.02344
G1 X115.269 Y121.457 E18.06575
G1 X116.503 Y121.227 E18.1075
G1 X117.785 Y121.224 E18.15014
G1 X119.027 Y121.452 E18.19214
G1 X120.247 Y121.924 E18.23565
G1 X121.315 Y122.583 E18.27739
G1 X122.279 Y123.468 E18.32091
G1 X123.045 Y124.49 E18.36339
G1 X123.599 Y125.602 E18.40471
G1 X123.913 Y126.702 E18.44276
G1 X123.961 Y126.958 E18.45143
G1 X124.055 Y127.969 E18.4852
G1 X124.055 Y128.226 E18.49374
G1 X123.944 Y129.39 E18.53263
G1 X123.599 Y130.595 E18.57432
G1 X123.045 Y131.711 E18.61576
G1 X122.28 Y132.731 E18.65817
G1 X121.318 Y133.615 E18.70162
G1 X120.246 Y134.277 E18.74353
G1 X119.042 Y134.745 E18.78649
G1 X117.806 Y134.976 E18.82832
G1 X116.516 Y134.976 E18.87122
G0 F6000 X116.551 Y134.576
G1 F900 X115.372 Y134.355 E18.91112
G1 X114.26 Y133.921 E18.95082
G1 X113.23 Y133.282 E18.99113
G1 X112.367 Y132.49 E19.03009
G1 X111.64 Y131.539 E19.06991
G1 X111.106 Y130.465 E19.1098
G1 X110.766 Y129.287 E19.15058
G1 X110.664 Y128.195 E19.18706
G1 X110.661 Y128.046 E19.19202
G1 X110.774 Y126.884 E19.23085
G1 X111.106 Y125.735 E19.27063
G1 X111.643 Y124.663 E19.3105
G1 X112.362 Y123.711 E19.35018
G1 X113.235 Y122.914 E19.3895
G1 X114.271 Y122.277 E19.42995
G1 X115.387 Y121.841 E19.4698
G1 X116.562 Y121.623 E19.50955
G1 X117.76 Y121.623 E19.54939
G1 X118.941 Y121.843 E19.58935
G1 X120.066 Y122.282 E19.62951
G1 X121.079 Y122.909 E19.66914
G1 X121.957 Y123.713 E19.70874
G1 X122.683 Y124.671 E19.74871
G1 X123.225 Y125.748 E19.78882
G1 X123.554 Y126.9 E19.82866
G1 X123.665 Y128.099 E19.86871
G1 X123.553 Y129.285 E19.90834
G1 X123.226 Y130.45 E19.94858
G1 X122.684 Y131.527 E19.98868
G1 X121.958 Y132.486 E20.02869
G1 X121.079 Y133.291 E20.06833
G1 X120.067 Y133.918 E20.10793
